src/Pure/16/symbolic/actions/reply-all-symbolic.svg

<?xml version="1.0" encoding="UTF-8" standalone="no"?>
<svg
   width="16"
   height="16"
   enable-background="new"
   version="1.1"
   id="svg2"
   sodipodi:docname="reply-all-symbolic.svg"
   inkscape:version="1.4.2 (ebf0e940d0, 2025-05-08)"
   xmlns:inkscape="http://www.inkscape.org/namespaces/inkscape"
   xmlns:sodipodi="http://sodipodi.sourceforge.net/DTD/sodipodi-0.dtd"
   xmlns="http://www.w3.org/2000/svg"
   xmlns:svg="http://www.w3.org/2000/svg">
  <sodipodi:namedview
     id="namedview2"
     pagecolor="#ffffff"
     bordercolor="#000000"
     borderopacity="0.25"
     inkscape:showpageshadow="2"
     inkscape:pageopacity="0.0"
     inkscape:pagecheckerboard="0"
     inkscape:deskcolor="#d1d1d1"
     inkscape:zoom="49.6875"
     inkscape:cx="8"
     inkscape:cy="8"
     inkscape:window-width="1920"
     inkscape:window-height="1010"
     inkscape:window-x="0"
     inkscape:window-y="0"
     inkscape:window-maximized="1"
     inkscape:current-layer="svg2" />
  <defs
    id="defs1">
    <style
      id="current-color-scheme"
      type="text/css">
      .ColorScheme-Text { color:#363636; }
    </style>
  </defs>
  <path
     id="path1"
     style="fill:currentColor"
     class="ColorScheme-Text"
     d="M 6.5 1.5 L 0.029296875 6 L 6.5 10.5 L 6.5 9.4570312 L 1.5292969 6 L 6.5 2.5429688 L 6.5 1.5 z M 10 1.5039062 L 3.53125 6.0039062 L 10 10.503906 L 10 8.0039062 L 10.5 8.0039062 C 11.865 8.0039062 13.0715 8.8779063 13.4375 10.003906 C 13.8745 11.351906 12 14.003906 12 14.003906 C 12 14.003906 16 12.503906 16 9.2539062 C 16 6.1309063 14 4.0039062 11 4.0039062 L 10 4.0039062 L 10 1.5039062 z M 9 3.4101562 L 9 5.0039062 L 11 5.0039062 C 12.264 5.0039062 13.22625 5.4431563 13.90625 6.1601562 C 14.58625 6.8761563 15 7.9059063 15 9.2539062 C 15 9.9259063 14.75725 10.472656 14.40625 10.972656 C 14.46425 10.556656 14.524953 10.151406 14.376953 9.6914062 C 13.856953 8.0944062 12.291 7.0039062 10.5 7.0039062 L 9 7.0039062 L 9 8.5976562 L 5.25 6.0039062 L 9 3.4101562 z " />
</svg>

<svg xmlns="http://www.w3.org/2000/svg" width="16" height="16" enable-background="new"><defs><filter id="a" color-interpolation-filters="sRGB"><feBlend mode="darken" in2="BackgroundImage"/></filter></defs><g color="#363636" font-weight="400" font-family="Sans" fill="#363636"><path style="line-height:normal;-inkscape-font-specification:Sans;text-indent:0;text-align:start;text-decoration-line:none;text-transform:none;block-progression:tb;marker:none" d="M6.5 1.5L.03 6l6.47 4.5V9.457L1.53 6 6.5 2.543z" overflow="visible" enable-background="accumulate"/><path style="line-height:normal;-inkscape-font-specification:Sans;text-indent:0;text-align:start;text-decoration-line:none;text-transform:none;block-progression:tb;marker:none" d="M10 1.503l-6.469 4.5 6.469 4.5v-2.5h.5c1.365 0 2.572.874 2.938 2 .437 1.348-1.438 4-1.438 4s4-1.5 4-4.75c0-3.123-2-5.25-5-5.25h-1v-2.5zM9 3.41v1.593h2c1.264 0 2.226.44 2.906 1.157.68.716 1.094 1.745 1.094 3.093 0 .672-.243 1.22-.594 1.72.058-.416.118-.822-.03-1.282-.52-1.597-2.085-2.688-3.876-2.688H9V8.597L5.25 6.003 9 3.41z" overflow="visible" enable-background="accumulate"/></g></svg>
